Newaita-dark/actions/22/view-right-close.svg

<svg height="22" viewBox="0 0 22 22" width="22" xmlns="http://www.w3.org/2000/svg"><path d="m14.097656 16.089844h5.457032c.253906 0 .457031.203125.457031.453125v.910156c0 .253906-.203125.457031-.457031.457031h-5.457032c-.25 0-.453125-.203125-.453125-.457031v-.910156c0-.25.203125-.453125.453125-.453125zm0 0" fill="#f44336"/><path d="m3.636719 1.992188c-1.007813 0-1.816407.808593-1.816407 1.816406v14.554687c0 1.007813.808594 1.820313 1.816407 1.820313h8.1875v-1.820313h-3.636719v-14.554687h9.09375c.503906 0 .910156.40625.910156.910156v7.277344h1.820313v-8.1875c0-1.007813-.8125-1.816406-1.820313-1.816406zm.910156 1.816406h2.730469v14.554687h-2.730469c-.503906 0-.910156-.40625-.910156-.910156v-12.734375c0-.503906.40625-.910156.910156-.910156zm0 0" fill="#e0e0e0"/></svg>

<?xml version="1.0" encoding="UTF-8"?>
<svg xmlns="http://www.w3.org/2000/svg" xmlns:xlink="http://www.w3.org/1999/xlink" width="22px" height="22px" viewBox="0 0 22 22" version="1.1">
<g id="surface1">
<path style=" stroke:none;fill-rule:nonzero;fill:rgb(95.686275%,26.274511%,21.176471%);fill-opacity:1;" d="M 14.097656 16.089844 L 19.554688 16.089844 C 19.808594 16.089844 20.011719 16.292969 20.011719 16.542969 L 20.011719 17.453125 C 20.011719 17.707031 19.808594 17.910156 19.554688 17.910156 L 14.097656 17.910156 C 13.847656 17.910156 13.644531 17.707031 13.644531 17.453125 L 13.644531 16.542969 C 13.644531 16.292969 13.847656 16.089844 14.097656 16.089844 Z M 14.097656 16.089844 "/>
<path style=" stroke:none;fill-rule:nonzero;fill:rgb(87.843138%,87.843138%,87.843138%);fill-opacity:1;" d="M 3.636719 1.992188 C 2.628906 1.992188 1.820312 2.800781 1.820312 3.808594 L 1.820312 18.363281 C 1.820312 19.371094 2.628906 20.183594 3.636719 20.183594 L 11.824219 20.183594 L 11.824219 18.363281 L 8.1875 18.363281 L 8.1875 3.808594 L 17.28125 3.808594 C 17.785156 3.808594 18.191406 4.214844 18.191406 4.71875 L 18.191406 11.996094 L 20.011719 11.996094 L 20.011719 3.808594 C 20.011719 2.800781 19.199219 1.992188 18.191406 1.992188 Z M 4.546875 3.808594 L 7.277344 3.808594 L 7.277344 18.363281 L 4.546875 18.363281 C 4.042969 18.363281 3.636719 17.957031 3.636719 17.453125 L 3.636719 4.71875 C 3.636719 4.214844 4.042969 3.808594 4.546875 3.808594 Z M 4.546875 3.808594 "/>
</g>
</svg>
